packages/emptystate/src/svg/code.svg

<svg fill="none" viewBox="0 0 128 128" xmlns="http://www.w3.org/2000/svg"><path clip-rule="evenodd" d="m7 7h55c1.1046 0 2 .89543 2 2v15h2v-15c0-2.20914-1.7909-4-4-4h-55c-2.20914 0-4 1.79086-4 4v41c0 2.2091 1.79086 4 4 4h17v-2h-17c-1.10457 0-2-.8954-2-2v-41c0-1.10457.89543-2 2-2zm17 70h-6c-2.2091 0-4 1.7909-4 4v31c0 2.209 1.7909 4 4 4h36c2.2091 0 4-1.791 4-4v-7h-2v7c0 1.105-.8954 2-2 2h-36c-1.1046 0-2-.895-2-2v-31c0-1.1046.8954-2 2-2h6zm59 28v15c0 2.209 1.7909 4 4 4h35c2.209 0 4-1.791 4-4v-45c0-2.2091-1.791-4-4-4h-6v-7c0-2.2091-1.791-4-4-4h-6v2h6c1.105 0 2 .8954 2 2v7h-8v2h8v6c0 1.1046-.895 2-2 2h-6v2h6c2.209 0 4-1.7909 4-4v-6h6c1.105 0 2 .8954 2 2v45c0 1.105-.895 2-2 2h-35c-1.1046 0-2-.895-2-2v-15zm23-68h5c2.209 0 4-1.7909 4-4v-15c0-2.2091-1.791-4-4-4h-24c-2.2091 0-4 1.7909-4 4v6h2v-6c0-1.1046.8954-2 2-2h24c1.105 0 2 .8954 2 2v15c0 1.1046-.895 2-2 2h-5z" fill="currentColor" fill-opacity=".2" fill-rule="evenodd"/><path d="m26 26h78v16h-78z" fill="currentColor" fill-opacity=".2"/><g stroke="currentColor" stroke-width="2"><path d="m54 63.5-12 6.5882 12 7.4118" stroke-linecap="round" stroke-linejoin="round"/><path d="m76 63.5 12 6.5882-12 7.4118" stroke-linecap="round" stroke-linejoin="round"/><path d="m70.5 58.5-12.5 25" stroke-linecap="round"/><rect height="77" rx="3" width="78" x="26" y="26"/><path d="m27 42h76"/><circle cx="34" cy="34" r="3"/><circle cx="44" cy="34" r="3"/><circle cx="54" cy="34" r="3"/></g></svg>

<svg xmlns="http://www.w3.org/2000/svg" viewBox="0 0 128 128">
  <g fill="none" fill-rule="evenodd">
    <path fill="currentColor" d="M7,7 L62,7 C63.1046,7 64,7.89543 64,9 L64,24 L66,24 L66,9 C66,6.79086 64.2091,5 62,5 L7,5 C4.79086,5 3,6.79086 3,9 L3,50 C3,52.2091 4.79086,54 7,54 L24,54 L24,52 L7,52 C5.89543,52 5,51.1046 5,50 L5,9 C5,7.89543 5.89543,7 7,7 Z M24,77 L18,77 C15.7909,77 14,78.7909 14,81 L14,112 C14,114.209 15.7909,116 18,116 L54,116 C56.2091,116 58,114.209 58,112 L58,105 L56,105 L56,112 C56,113.105 55.1046,114 54,114 L18,114 C16.8954,114 16,113.105 16,112 L16,81 C16,79.8954 16.8954,79 18,79 L24,79 L24,77 Z M83,105 L83,120 C83,122.209 84.7909,124 87,124 L122,124 C124.209,124 126,122.209 126,120 L126,75 C126,72.7909 124.209,71 122,71 L116,71 L116,64 C116,61.7909 114.209,60 112,60 L106,60 L106,62 L112,62 C113.105,62 114,62.8954 114,64 L114,71 L106,71 L106,73 L114,73 L114,79 C114,80.1046 113.105,81 112,81 L106,81 L106,83 L112,83 C114.209,83 116,81.2091 116,79 L116,73 L122,73 C123.105,73 124,73.8954 124,75 L124,120 C124,121.105 123.105,122 122,122 L87,122 C85.8954,122 85,121.105 85,120 L85,105 L83,105 Z M106,37 L111,37 C113.209,37 115,35.2091 115,33 L115,18 C115,15.7909 113.209,14 111,14 L87,14 C84.7909,14 83,15.7909 83,18 L83,24 L85,24 L85,18 C85,16.8954 85.8954,16 87,16 L111,16 C112.105,16 113,16.8954 113,18 L113,33 C113,34.1046 112.105,35 111,35 L106,35 L106,37 Z" opacity=".2"/>
    <polyline stroke="currentColor" stroke-linecap="round" stroke-linejoin="round" stroke-width="2" points="54 63.5 42 70.088 54 77.5"/>
    <polyline stroke="currentColor" stroke-linecap="round" stroke-linejoin="round" stroke-width="2" points="76 63.5 88 70.088 76 77.5"/>
    <path stroke="currentColor" stroke-linecap="round" stroke-width="2" d="M70.5,58.5 L58,83.5"/>
    <rect width="78" height="77" x="26" y="26" stroke="currentColor" stroke-width="2" rx="3"/>
    <path stroke="currentColor" stroke-width="2" d="M27,42 L103,42"/>
    <circle cx="34" cy="34" r="3" stroke="currentColor" stroke-width="2"/>
    <circle cx="44" cy="34" r="3" stroke="currentColor" stroke-width="2"/>
    <circle cx="54" cy="34" r="3" stroke="currentColor" stroke-width="2"/>
    <rect width="78" height="16" x="26" y="26" fill="currentColor" opacity=".2"/>
  </g>
</svg>
